src/pos-icons/wrench.svg

<svg height="24" viewBox="0 0 24 24" width="24" xmlns="http://www.w3.org/2000/svg"><path d="m22.7 19-9.1-9.1c.9-2.3.4-5-1.5-6.9-2-2-5-2.4-7.4-1.3l4.3 4.3-3 3-4.4-4.3c-1.2 2.4-.7 5.4 1.3 7.4 1.9 1.9 4.6 2.4 6.9 1.5l9.1 9.1c.4.4 1 .4 1.4 0l2.3-2.3c.5-.4.5-1.1.1-1.4z"/></svg>

<?xml version="1.0" encoding="UTF-8"?><!DOCTYPE svg PUBLIC "-//W3C//DTD SVG 1.1//EN" "http://www.w3.org/Graphics/SVG/1.1/DTD/svg11.dtd"><svg xmlns="http://www.w3.org/2000/svg" xmlns:xlink="http://www.w3.org/1999/xlink" version="1.1" id="mdi-wrench" width="24" height="24" viewBox="0 0 24 24"><path d="M22.7,19L13.6,9.9C14.5,7.6 14,4.9 12.1,3C10.1,1 7.1,0.6 4.7,1.7L9,6L6,9L1.6,4.7C0.4,7.1 0.9,10.1 2.9,12.1C4.8,14 7.5,14.5 9.8,13.6L18.9,22.7C19.3,23.1 19.9,23.1 20.3,22.7L22.6,20.4C23.1,20 23.1,19.3 22.7,19Z" /></svg>
